X: 6153
T: Captain O'Kane
R: waltz
M: 3/4
K: Gminor
M:3/4
|:GF|D2 G2 A2|B4 AG|AB cB AG|F2 G2 A2|
B2 d2 B2|dc BA GF|D2 G2 ^F2|G4:|
|:GA|B2 d2 d2|d4 cB|A2 c2 c2|c4 BA|
G2 g3 g|g2 a2 b2|d2 g2 ^f2|g4 ga|
b2 a2 g2|f2 e2 d2|dc BA f2|F3 G A2|
B2 d2 B2|dc BA GF|D2 G2 ^F2|G4:|

